X: 1
T:Little Black Pig
R:Jig
M:6/8
S:Sharon Shannon, Clare (accordian)
D:Session tape, Doolin 1987
Z:Bernie Stocks
K:G
ABA DFA | ded dcA | GEE cEE |1 GAB c3 :|2 DED D3 :|
ded ecA | ded dcA | GEE cEE |1 GAB c3 :|2 DED D3 :|
